X:1
T:The Latest Today
T:S.Draper
T:The Latest Today
C:S.Draper
%%score 1 { 2 | 3 }
L:1/8
Q:1/4=150
M:4/4
K:D
V:1 treble nm="Voice" snm="Pno"
V:2 treble nm="Piano" snm="Pno."
V:3 bass 
V:1
 z8 | z8 | D2 F2 A2 FB- | B G2 D A2 F2 | A2 =F2 =C2 DE- | E =F2 E D4 | D2 F2 A2 FB- | %7
w: ||Roll- ing back the years|_ a few thou- sand|You can see the lights|* in the inn.|Hos- pi- tal- i- ty|
 B G2 D A2 F2 | d2 c2 B2 AG- | G F2 E D4 | z8 | z8 | D2 F2 A2 FB- | B G2 D A2 F2 | A2 =F2 =C2 DE- | %15
w: _ not a strong point|Jo- seph's pa- tience now|_ wear- ing thin.|||Tak- ing Ma- ry in-|* to the sta- ble|Clears a space that’s a-|
 E=F E2 D4 | D2 F2 A2 FB- | B G2 D A2 F2 | d2 c2 B2 AG- | G F2 E D4 | A2 A2 A2 A^G- | G E3- E4 | %22
w: * ni- mal free.|Not a ro- yal start|_ for a Great King,|But the rest is now|_ hi- sto- ry|An- gels in the hea-|* vens _|
 =G2 G2 G2 GF- | F8 | A2 A2 A2 A^G- | G E3- E4 | B3 c- c2 A2 | ^G3 B- B2 F2 | E8 | z8 | %30
w: sang a song of joy.|_|Tel- ling us to wor-|* ship _|Ma- ry's _ new|born ba- * by|boy.||
 D2 F2 A2 FB- | B G2 D A2 F2 | A2 =F2 =C2 DE- | E =F2 E D4 | D2 F2 A2 FB- | B G2 D A2 F2 | %36
w: Then the shep- herds came|_ to the sta- ble|Do- ing what the an-|* gels had said.|And the wise men led|_ by the star- light|
 d2 c2 B2 AG- | G F2 E D4 | A2 A2 A2 A^G- | G E3- E4 | =G2 G2 G2 GF- | F8 | A2 A2 A2 A^G- | %43
w: Gave their gifts to lay|_ round his bed.|An- gels in the hea-|* vens _|sang a song of joy.|_|Tel- ling us to wor-|
 G E3- E4 | B3 c- c2 A2 | ^G3 B- B2 F2 | E8 | z8 | D2 F2 A2 FB- | B G2 D A2 F2 | A2 =F2 =C2 DE- | %51
w: * ship _|Ma- ry's _ new|born ba- * by|boy.||Won’t you come to praise|_ our re- deem- er|Ly- ing in a man-|
 E =F2 E D4 | D2 F2 A2 FB- | B G2 D A2 F2 | z8 | z4 z2 D2 | D2 F2 A2 FB- | B G2 D A2 F2 | %58
w: * ger of hay.|First to pay re- spects|_ were the shep- herds||But|rol- ing on the years|_ a few thou- sand|
 G2 B2 d2 B=c- | c G6- G | G2 B2 d2 B=c- | c G6- G | z8 | z8 | D2 F2 A2 FB- | B G2 B d4 |] %66
w: You can be the la-|* test *|You can be the la-|* test *|||You can be the la-|* test to- day.|
V:2
 [Ad]2 c2 [DGB]2 A[CEG]- | [CEG] F2 E [F,A,D]4 | D2 F2 [DFA]2 F[D-GB-] | [DGB] G2 D [DFA]2 F2 | %4
 [=C=FA]2 F2 [A,C]2 D[CE]- | E =F2 E [B,D]4 | D2 F2 [DFA]2 F[D-GB-] | [DGB] G2 D [DFA]2 F2 | %8
 [FAd-]4 [GBd]2- [GBd][Ac]- | [Ac] [Bd]2 [ce] [df]4 | [=ca]=fcg ecGc | [db]gdc' aeac' | %12
 D2 F2 [DFA]2 F[D-GB-] | [DGB] G2 D [DFA]2 F2 | [C=FA]2 F2 [A,=C]2 D[CE]- | [CE] =F2 E [B,D]4 | %16
 D2 F2 [DFA]2 F[D-GB-] | [DGB] G2 D [DFA]2 F2 | [FAd-]4 [GBd]2- [GBd][Ac]- | %19
 [Ac] [Bd]2 [ce] [df]4 | [cea]2 [cea]2 [cea]2 [cea][Be^g]- | [Beg] [^GBe]3 b^geB | %22
 [Bd=g]2 [Bdg]2 [Bdg]2 [Bdg][Adf]- | [Adf] z dA afdB | [cea]2 [cea]2 [cea]2 [cea][Be^g]- | %25
 [Beg] [^GBe]3 b^gec | bf^d^a fcec | ^geB=g dBdA | [EAc]2 cd efga | [db]gdc' aeac' | %30
 D2 F2 [DFA]2 F[D-GB-] | [DGB] G2 D [DFA]2 F2 | [=C=FA]2 F2 [A,C]2 D[CE]- | E =F2 E [B,D]4 | %34
 D2 F2 [DFA]2 F[D-GB-] | [DGB] G2 D [DFA]2 F2 | [FAd-]4 [GBd]2- [GBd][Ac]- | %37
 [Ac] [Bd]2 [ce] [df]4 | [cea]2 [cea]2 [cea]2 [cea][Be^g]- | [Beg] [^GBe]3 b^geB | %40
 [Bd=g]2 [Bdg]2 [Bdg]2 [Bdg][Adf]- | [Adf] z dA afdB | [cea]2 [cea]2 [cea]2 [cea][Be^g]- | %43
 [Beg] [^GBe]3 b^gec | bf^d^a fcec | ^geB=g dBdA | [EAc]2 cd efga | [db]gdc' aeac' | %48
 D2 F2 [DFA]2 F[D-GB-] | [DGB] G2 D [DFA]2 F2 | [C=FA]2 F2 [A,=C]2 D[CE-] | E =F2 E [B,D]4 | %52
 D2 F2 [DFA]2 F[D-GB-] | [DGB] G2 D [DFA]2 F2 | [=fd']_bf=c' af=cf | [ge']=c'gd' =bgdg | %56
 D2 F2 A2 F[DGB]- | [DGB] G2 D [DFA]4 | G2 B2 [GBd]2 B[G-=ce-] | [G=ce] G3 [Ac=f]2 [=Gce]2 | %60
 G2 B2 [GBd]2 B[G-=ce-] | [G=ce] G3 [eg=c']2 [dgb]2 | [=fd']_bf=c' af=cf | [ge']=c'gd' bgdg | %64
 D2 F2 A2 F[DGB]- | [DGB] G2 B [DFAd]4 |] %66
V:3
 F,,2 F,2 G,,2 G,2 | A,,2 A,2 D,,4 | [D,F,A,]4 F,,2 F,2 | G,,2 G,2 D,,2 D,2 | =F,,2 =F,2 F,,2 F,2 | %5
 =C,,2 =C,2 G,,2 G,2 | [D,F,A,]4 F,,2 F,2 | G,,2 G,2 D,,2 D,2 | F,,2 F,2 G,,2 G,2 | %9
 A,,2 A,2 D,,2 D,2 | =F,,3 =C,,- C,,4 | G,,3 A,,- A,,4 | [D,F,A,]4 F,,2 F,2 | G,,2 G,2 D,,2 D,2 | %14
 =F,,2 =F,2 F,,2 F,2 | =C,,2 =C,2 G,,2 G,2 | [D,F,A,]4 F,,2 F,2 | G,,2 G,2 D,,2 D,2 | %18
 F,,2 F,2 G,,2 G,2 | A,,2 A,2 D,,2 D,2 | A,,4 C,4 | E,4 E,,2 F,,2 | G,,4 B,,4 | D,4 F,,2 G,,2 | %24
 A,,4 C,4 | E,4 ^G,,2 A,,2 | B,,3 F,,- F,,2 A,,2 | E,3 B,,- B,,2 D,2 | A,,8 | G,,3 A,,- A,,4 | %30
 [D,F,A,]4 F,,2 F,2 | G,,2 G,2 D,,2 D,2 | =F,,2 =F,2 F,,2 F,2 | =C,,2 =C,2 G,,2 G,2 | %34
 [D,F,A,]4 F,,2 F,2 | G,,2 G,2 D,,2 D,2 | F,,2 F,2 G,,2 G,2 | A,,2 A,2 D,,2 D,2 | A,,4 C,4 | %39
 E,4 E,,2 F,,2 | G,,4 B,,4 | D,4 F,,2 G,,2 | A,,4 C,4 | E,4 ^G,,2 A,,2 | B,,3 F,,- F,,2 A,,2 | %45
 E,3 B,,- B,,2 D,2 | A,,8 | G,,3 A,,- A,,4 | [D,F,A,]4 F,,2 F,2 | G,,2 G,2 D,,2 D,2 | %50
 =F,,2 =F,2 F,,2 F,2 | =C,,2 =C,2 G,,2 G,2 | [D,F,A,]4 F,,2 F,2 | G,,2 G,2 D,,2 D,2 | %54
 _B,,3 =F,,- F,,4 | =C,3 G,,- G,,4 | [D,F,A,]4 F,,2 F,2 | G,,2 G,2 D,,2 D,2 | [G,B,D]4 B,,2 B,2 | %59
 =C,2 =C2 C,2 C2 | [G,B,D]4 B,,2 B,2 | =C,2 =C2 G,,2 G,2 | _B,,3 =F,,- F,,4 | =C,3 G,,- G,,4 | %64
 [D,F,A,]4 F,,4 | G,,4 D,,4 |] %66

